assets/x.svg

<svg width="32" height="32" viewBox="0 0 32 32"  xmlns="http://www.w3.org/2000/svg">
<path fill-rule="evenodd" clip-rule="evenodd" d="M31.5569 5.28973L26.7103 0.443061C26.1195 -0.147687 25.1617 -0.147687 24.571 0.443061L16 9.01404L7.42902 0.443061C6.83827 -0.147687 5.88048 -0.147687 5.28973 0.443061L0.443061 5.28973C-0.147687 5.88048 -0.147687 6.83827 0.443061 7.42902L9.01404 16L0.443061 24.571C-0.147687 25.1617 -0.147687 26.1195 0.443061 26.7103L5.28973 31.5569C5.88048 32.1477 6.83827 32.1477 7.42902 31.5569L16 22.986L24.571 31.5569C25.1617 32.1477 26.1195 32.1477 26.7103 31.5569L31.5569 26.7103C32.1477 26.1195 32.1477 25.1617 31.5569 24.571L22.986 16L31.5569 7.42902C32.1477 6.83827 32.1477 5.88048 31.5569 5.28973Z" />
</svg>

<svg xmlns="http://www.w3.org/2000/svg" viewBox="0 0 32 32">
    <path fill-rule="evenodd"
        d="M31.557 5.29 26.71.443a1.513 1.513 0 0 0-2.139 0L16 9.014 7.429.444a1.513 1.513 0 0 0-2.14 0L.444 5.29c-.59.59-.59 1.548 0 2.139L9.014 16l-8.57 8.571a1.511 1.511 0 0 0 0 2.14l4.846 4.846c.59.59 1.548.59 2.139 0L16 22.986l8.571 8.57c.59.592 1.548.592 2.14 0l4.846-4.846c.59-.59.59-1.548 0-2.139L22.986 16l8.57-8.571a1.511 1.511 0 0 0 0-2.14Z"
        clip-rule="evenodd" />
</svg>
